icons/briefcase.svg

<svg width="24" height="24" viewBox="0 0 24 24" fill="none" xmlns="http://www.w3.org/2000/svg">
<path fill-rule="evenodd" clip-rule="evenodd" d="M7 3C7 2.44772 7.44772 2 8 2H16C16.5523 2 17 2.44772 17 3V6H22C22.5523 6 23 6.44772 23 7V21C23 21.5523 22.5523 22 22 22H2C1.44772 22 1 21.5523 1 21V7C1 6.44772 1.44772 6 2 6H7V3ZM7 8H3V20H7V8ZM9 20V8H15V20H9ZM17 20H21V8H17V20ZM15 6H9V4H15V6Z" fill="black"/>
</svg>

<svg
  width="24"
  height="24"
  viewBox="0 0 24 24"
  xmlns="http://www.w3.org/2000/svg"
>
  <path
    fill-rule="evenodd"
    clip-rule="evenodd"
    d="M7 3a1 1 0 0 1 1-1h8a1 1 0 0 1 1 1v3h5a1 1 0 0 1 1 1v14a1 1 0 0 1-1 1H2a1 1 0 0 1-1-1V7a1 1 0 0 1 1-1h5V3zm0 5H3v12h4V8zm2 12V8h6v12H9zm8 0h4V8h-4v12zM15 6H9V4h6v2z"
  />
</svg>
